icons/settings-2-fill.svg

<svg viewBox="0 0 24 24" fill="currentColor" xmlns="http://www.w3.org/2000/svg"><path d="M8.68637 4.00008L11.293 1.39348C11.6835 1.00295 12.3167 1.00295 12.7072 1.39348L15.3138 4.00008H19.0001C19.5524 4.00008 20.0001 4.4478 20.0001 5.00008V8.68637L22.6067 11.293C22.9972 11.6835 22.9972 12.3167 22.6067 12.7072L20.0001 15.3138V19.0001C20.0001 19.5524 19.5524 20.0001 19.0001 20.0001H15.3138L12.7072 22.6067C12.3167 22.9972 11.6835 22.9972 11.293 22.6067L8.68637 20.0001H5.00008C4.4478 20.0001 4.00008 19.5524 4.00008 19.0001V15.3138L1.39348 12.7072C1.00295 12.3167 1.00295 11.6835 1.39348 11.293L4.00008 8.68637V5.00008C4.00008 4.4478 4.4478 4.00008 5.00008 4.00008H8.68637ZM12.0001 15.0001C13.6569 15.0001 15.0001 13.6569 15.0001 12.0001C15.0001 10.3432 13.6569 9.00008 12.0001 9.00008C10.3432 9.00008 9.00008 10.3432 9.00008 12.0001C9.00008 13.6569 10.3432 15.0001 12.0001 15.0001Z"/></svg>

<svg xmlns="http://www.w3.org/2000/svg" viewBox="0 0 24 24">
    <g>
        <path fill="none" d="M0 0h24v24H0z"/>
        <path d="M8.686 4l2.607-2.607a1 1 0 0 1 1.414 0L15.314 4H19a1 1 0 0 1 1 1v3.686l2.607 2.607a1 1 0 0 1 0 1.414L20 15.314V19a1 1 0 0 1-1 1h-3.686l-2.607 2.607a1 1 0 0 1-1.414 0L8.686 20H5a1 1 0 0 1-1-1v-3.686l-2.607-2.607a1 1 0 0 1 0-1.414L4 8.686V5a1 1 0 0 1 1-1h3.686zM12 15a3 3 0 1 0 0-6 3 3 0 0 0 0 6z"/>
    </g>
</svg>
